!!!COM: Rycroft, David Kenneth
!!!CDT: 1924-1997
!!!OTL: National Anthem, Swaziland
!!!ENC: Davis, Matthew J.
!!Vocal Line Only
**kern
*clefG2
*k[b-e-a-d-]
*A-:
*M4/4
=1-
4a-
4a-
4b-
=2
4.cc
8dd-
8f
8f
8b-
8b-
=3
4a-
4b-
4g
8g
8b-
=4
8a-
8a-
4r
8r
8e-
8e-
8e-
=5
4a-
4e-
4a-
8g
8g
=6
8e-
4e-
8r
8r
8e-
8e-
8e-
=7
4g
4c
8dn
4c
8A-
=8
4.c
8r
4a-
4e-
=9
8e-
8a-
8g
4dn
8dn
8c
8c
=10
8A-
8A-
8r
8a-
8cc
8a-
8cc
=11
8cc
8a-
4.cc
8g
8g
8g
=12
8e-
8e-
4r
4a-
4e-
=13
8g
4dn
8c
8d
8c
4A-
=14
4.c
8r
4e-
8a-
8e-
=15
2e-
8r
8e-
8e-
8a-
=16
8g
8e-
4e-
4r
4e-
=17
4a-
8e-
4e-
8e-
8g
8f
=18
4e-
4r
4a-
8cc
8a-
=19
4.a-
8f
8b-
8a-
8b-
8a-
=20
4.g
8r
4a-
4a-
=21
1b-
=22
4a-
==|!
*-
